src/lib/packages/icons/src/assets/line/receipt-star-alt.svg

<svg width="24" height="24" viewBox="0 0 24 24" fill="none" xmlns="http://www.w3.org/2000/svg">
<path d="M12 21.749C11.424 21.749 10.8481 21.53 10.4091 21.091L8.38904 19.072C8.12604 18.81 7.70396 18.781 7.40796 19.003L6.05005 20.022C5.51605 20.422 4.81302 20.485 4.21802 20.187C3.62102 19.889 3.25 19.289 3.25 18.622V5.379C3.25 4.712 3.62102 4.112 4.21802 3.814C4.81302 3.515 5.51605 3.57901 6.05005 3.97901L7.40906 4.999C7.70406 5.221 8.12704 5.19199 8.38904 4.92899L10.4091 2.91001C11.2861 2.03301 12.7139 2.03301 13.5909 2.91001L15.611 4.93C15.874 5.192 16.296 5.221 16.592 4.999L17.95 3.98002C18.484 3.58002 19.187 3.51601 19.782 3.81501C20.379 4.11301 20.75 4.71301 20.75 5.38001V18.623C20.75 19.29 20.379 19.89 19.782 20.188C19.187 20.486 18.484 20.423 17.95 20.023L16.5909 19.003C16.2959 18.781 15.873 18.81 15.611 19.073L13.5909 21.092C13.1519 21.53 12.576 21.749 12 21.749ZM7.85596 17.356C8.43696 17.356 9.01595 17.578 9.44995 18.011L11.47 20.031C11.753 20.314 12.247 20.314 12.531 20.031L14.551 18.012C15.338 17.225 16.605 17.137 17.491 17.803L18.851 18.823C18.958 18.905 19.06 18.872 19.113 18.847C19.164 18.821 19.251 18.758 19.251 18.623V5.38001C19.251 5.24501 19.164 5.18201 19.113 5.15601C19.06 5.13001 18.959 5.098 18.851 5.18L17.4919 6.20002C16.6019 6.86602 15.338 6.778 14.551 5.991L12.531 3.97101C12.238 3.67901 11.763 3.67901 11.47 3.97101L9.44995 5.98999C8.66295 6.77699 7.39701 6.86501 6.51001 6.19901L5.15002 5.17899C5.04202 5.09699 4.94094 5.129 4.88794 5.155C4.83694 5.181 4.75 5.244 4.75 5.379V18.622C4.75 18.757 4.83694 18.82 4.88794 18.846C4.94094 18.872 5.04102 18.904 5.15002 18.822L6.50903 17.802C6.90803 17.503 7.38296 17.356 7.85596 17.356ZM14.292 16.75C14.093 16.75 13.894 16.702 13.709 16.606L12 15.714L10.292 16.605C9.86399 16.829 9.35602 16.789 8.96802 16.506C8.58002 16.223 8.39005 15.753 8.47205 15.281L8.79602 13.405L7.37195 12.028C7.03495 11.702 6.91506 11.223 7.06006 10.777C7.20506 10.33 7.58297 10.011 8.04797 9.94401L10.0229 9.66001L10.875 7.947C11.088 7.518 11.52 7.25 12.001 7.25C12.481 7.25 12.913 7.517 13.127 7.947L13.979 9.66001L15.954 9.94401C16.419 10.011 16.798 10.33 16.942 10.777C17.087 11.223 16.966 11.702 16.63 12.028L15.2061 13.405L15.531 15.283C15.612 15.756 15.422 16.225 15.033 16.508C14.811 16.668 14.552 16.75 14.292 16.75ZM12 14.18C12.194 14.18 12.389 14.226 12.566 14.319L13.965 15.049L13.699 13.513C13.631 13.114 13.763 12.709 14.054 12.428L15.172 11.347L13.618 11.123C13.222 11.066 12.878 10.818 12.698 10.459L11.998 9.051L11.299 10.457C11.118 10.817 10.775 11.065 10.377 11.123L8.82397 11.347L9.94299 12.429C10.233 12.709 10.366 13.114 10.297 13.512L10.031 15.047L11.4301 14.318C11.6111 14.226 11.806 14.18 12 14.18ZM15.099 13.507C15.098 13.507 15.098 13.507 15.099 13.507V13.507ZM15.7371 11.428H15.748H15.7371ZM11.782 8.61402C11.782 8.61402 11.783 8.615 11.783 8.616L11.782 8.61402Z" fill="currentColor"/>
</svg>

<svg xmlns="http://www.w3.org/2000/svg" width="24" height="24" fill="none"><path fill="currentColor" d="M12 21.749a2.242 2.242 0 0 1-1.59-.658l-2.021-2.019a.756.756 0 0 0-.981-.069L6.05 20.022c-.534.4-1.237.463-1.832.165a1.74 1.74 0 0 1-.968-1.565V5.379c0-.667.371-1.267.968-1.565a1.739 1.739 0 0 1 1.832.165l1.36 1.02a.753.753 0 0 0 .979-.07l2.02-2.019a2.253 2.253 0 0 1 3.182 0l2.02 2.02a.755.755 0 0 0 .981.069L17.95 3.98a1.739 1.739 0 0 1 1.832-.165c.597.298.968.898.968 1.565v13.243a1.74 1.74 0 0 1-.968 1.565 1.741 1.741 0 0 1-1.832-.165l-1.36-1.02a.753.753 0 0 0-.979.07l-2.02 2.019a2.245 2.245 0 0 1-1.591.657Zm-4.144-4.393c.581 0 1.16.222 1.594.655l2.02 2.02a.77.77 0 0 0 1.061 0l2.02-2.019a2.261 2.261 0 0 1 2.94-.209l1.36 1.02a.24.24 0 0 0 .262.024.241.241 0 0 0 .138-.224V5.38a.241.241 0 0 0-.138-.224.238.238 0 0 0-.262.024l-1.36 1.02a2.262 2.262 0 0 1-2.94-.209l-2.02-2.02a.752.752 0 0 0-1.061 0L9.45 5.99a2.261 2.261 0 0 1-2.94.209l-1.36-1.02a.238.238 0 0 0-.262-.024.241.241 0 0 0-.138.224v13.243c0 .135.087.198.138.224a.238.238 0 0 0 .262-.024l1.359-1.02a2.242 2.242 0 0 1 1.347-.446Zm6.436-.606c-.199 0-.398-.048-.583-.144L12 15.714l-1.708.891a1.25 1.25 0 0 1-1.324-.099 1.244 1.244 0 0 1-.496-1.225l.324-1.876-1.424-1.377a1.209 1.209 0 0 1-.312-1.251c.145-.447.523-.766.988-.833l1.975-.284.852-1.713a1.25 1.25 0 0 1 1.126-.697c.48 0 .912.267 1.126.697l.852 1.713 1.975.284c.465.067.844.386.988.833a1.21 1.21 0 0 1-.312 1.251l-1.424 1.377.325 1.878c.081.473-.109.942-.498 1.225-.222.16-.481.242-.741.242ZM12 14.18c.194 0 .389.046.566.139l1.399.73-.266-1.536a1.22 1.22 0 0 1 .355-1.085l1.118-1.081-1.554-.224a1.225 1.225 0 0 1-.92-.664l-.7-1.408-.699 1.406a1.23 1.23 0 0 1-.922.666l-1.553.224 1.119 1.082c.29.28.423.685.354 1.083l-.266 1.535 1.4-.729A1.25 1.25 0 0 1 12 14.18Zm3.099-.673c-.001 0-.001 0 0 0Zm.638-2.079h.011-.01Zm-3.955-2.814.001.002-.001-.002Z"/></svg>
